icons/flag-fill.svg

<svg viewBox="0 0 24 24" fill="currentColor" xmlns="http://www.w3.org/2000/svg"><path d="M3 3H12.382C12.7607 3 13.107 3.214 13.2764 3.55279L14 5H20C20.5523 5 21 5.44772 21 6V17C21 17.5523 20.5523 18 20 18H13.618C13.2393 18 12.893 17.786 12.7236 17.4472L12 16H5V22H3V3Z"/></svg>

<svg xmlns="http://www.w3.org/2000/svg" viewBox="0 0 24 24">
    <g>
        <path fill="none" d="M0 0h24v24H0z"/>
        <path d="M3 3h9.382a1 1 0 0 1 .894.553L14 5h6a1 1 0 0 1 1 1v11a1 1 0 0 1-1 1h-6.382a1 1 0 0 1-.894-.553L12 16H5v6H3V3z"/>
    </g>
</svg>
